X: 186
T: A Fig For A Kiss
R: slip jig
M: 9/8
K: Edorian
|:G2 B E2 B BAG|F2 A D2 A AGF|G2 B E2 B BAG|BdB AGF E3:|
e2 d e2 f afd|e2 f g2 a bag|e2 d e2 f gfe|dcB AGF E3|
e2 f g2 a bag|f2 d d2 f agf|bag agf gfe|dcB AGF E3||

